X:7906
T:New Year's Eve
C:anon.
O:Wales
Z:Transcribed by Frank Nordberg - http://www.musicaviva.com
F:http://abc.musicaviva.com/tunes/wales/new-years-eve.abc
M:C
L:1/8
K:G
"^Allegretto"D2|:d3cB2A2|G3AB2G2|ABcAB3A|G2F2G4:|
A3Bc2A2|B3cd2A2|Bcd2^cdeg|f2e2d4|
d3cB2A2|GFGAB2G2|AecAd3c|B2A2G4|]
W:
W:
W:  From Musica Viva - http://www.musicaviva.com
W:  the Internet center for free sheet music downloads.
